src/lib/packages/icons/src/assets/filled/graduation-cap.svg

<svg width="24" height="24" viewBox="0 0 24 24" fill="none" xmlns="http://www.w3.org/2000/svg">
<path d="M18 14.4189V16.6999C18 17.3939 17.6329 18.035 17.0459 18.406C13.6819 20.531 10.3169 20.531 6.9529 18.406C6.3659 18.036 5.99905 17.3939 5.99905 16.6999V14.4189C5.99905 14.3429 6.08 14.295 6.147 14.331L9.81912 16.3399C10.4791 16.6999 11.239 16.89 11.999 16.89C12.759 16.89 13.519 16.6999 14.179 16.3399L17.8511 14.331C17.9191 14.294 18 14.3429 18 14.4189ZM19.937 7.90499L13.4661 4.37399C12.5531 3.87599 11.4489 3.87599 10.5349 4.37399L4.06399 7.90499C2.64599 8.67799 2.64599 10.714 4.06399 11.488L10.5349 15.019C11.4479 15.517 12.5521 15.517 13.4661 15.019L19.937 11.488L19.25 11.863V16C19.25 16.414 19.586 16.75 20 16.75C20.414 16.75 20.75 16.414 20.75 16V10.671C21.254 9.73899 20.986 8.47699 19.937 7.90499Z" fill="currentColor"/>
</svg>

<svg xmlns="http://www.w3.org/2000/svg" width="24" height="24" fill="none"><path fill="currentColor" d="M18 14.419v2.28c0 .695-.367 1.336-.954 1.707-3.364 2.125-6.73 2.125-10.093 0a2.025 2.025 0 0 1-.954-1.706v-2.281a.1.1 0 0 1 .148-.088l3.672 2.009c.66.36 1.42.55 2.18.55.76 0 1.52-.19 2.18-.55l3.672-2.009a.1.1 0 0 1 .149.088Zm1.937-6.514-6.47-3.531a3.062 3.062 0 0 0-2.932 0L4.064 7.905c-1.418.773-1.418 2.809 0 3.583l6.47 3.531a3.062 3.062 0 0 0 2.932 0l6.471-3.531-.687.375V16a.75.75 0 0 0 1.5 0v-5.329c.504-.932.236-2.194-.813-2.766Z"/></svg>
